X: 1
T: The Blackwater Reel
T: 8x32R 3C (Alan Davis, RSCDS Bk 41)
P: Miss Alison O'Connor
C: D. R. Cunningham
C: from the internet, arr. T. Traub 8-6-2012
R: Reel
K: A
M: 4/4
L: 1/8
|:AB|"A"cA,CE Acea|"D"fedf "A"e2 dc|"D"dafd "A"caec|"Bm"dBcA "E"B2 AB|"A"cA,CE Acea|
"D"fedf "A"e2 dc|"D"dafd "A"caec|"E"dBAG "A"A2:||:ag|"D"fAdf bagf|"A"eAcf e2 dc|
"E"BEGB edcB|"A"ce^df e2 ag|"D"fAdf bagf|"A"ecAF E2 ^DE|"D"FAGF "E"GedB|"A"c2 A2 A2:|
